!!!!SEGMENT: pl-kk--kk-i-6--047-003_anonim--missa-conceptionis-sanctus.krn
!!!cenid: 16xx:1042
!!!COM: Anonim
!!!COM-rismid: pe30004985
!!!CDT:
!!!CNT:
!!!OPR: Missa Conceptionis
!!!OTL: Sanctus
!!!OMV: 003
!!!PDT:
!!!AGN: Sacred; Mass
!!!SMS-siglum: PL-Kk
!!!SMS-shelfmark: Kk.I.6
!!!SMS-shelfwork: 047-003 M
!!!SMS-variant:
!!!SMS-altvar:
!!!NIFC-rismid: 1001136539
!!!URL-scan: http://repozytorium.nifc.pl/skany/pl-kk-nut--i-6
!!!ONB-nifc: UWAGA: C (skan 0068-0071, s. 133-138), T (skan 0180-0182, s. 165-169), B (skan 0289-0290, s. 160-163) Części Mszy: 1. Kyrie, 2. Et in terra, 3. Sanctus, 4. Agnus Dei
!!!key:
**kern	**text	**kern	**text	**kern	**text
*part3	*part3	*part2	*part2	*part1	*part1
*staff3	*staff3	*staff2	*staff2	*staff1	*staff1
*Iempty	*	*Itenor	*	*Ivox	*
*I"Baſsus.	*	*I"Tenor.	*	*I"Cantus.	*
*I'B	*	*I'T	*	*I'S	*
*clefF4	*	*clefC4	*	*clefC1	*
*k[b-]	*	*k[b-]	*	*k[b-]	*
*g:	*	*g:	*	*g:	*
*M2/1	*	*M2/1	*	*M2/1	*
*met(c|)	*	*met(c|)	*	*met(c|)	*
*>[ABCB]	*	*>[ABCB]	*	*>[ABCB]	*
=1	=1	=1	=1	=1	=1
*>A	*	*>A	*	*>A	*
!LO:TX:t=P:problem=kreska pseudotaktowa	!	!	!	!	!
!LO:TX:t=P:problem=BB- scalone z kluczem	!	!	!	!LO:TX:t=P:problem=b- scalone z kluczem	!
1r	.	2.G/	San-	0r	.
.	.	4A/	.	.	.
!LO:TX:t=P:problem=kreska pseudotaktowa	!	!LO:TX:t=P:problem=4\left or middle&colon; global	!	!	!
1G\	San-	4B-\	.	.	.
.	.	4c\	.	.	.
.	.	4d\	.	.	.
.	.	8c\L	.	.	.
.	.	8B-\J	.	.	.
=2-	=2-	=2-	=2-	=2-	=2-
*2\right	*	*2\right	*	*	*
2F\	.	2c\	.	1r	.
!LO:TX:t=P:problem=4\left or middle&colon; global	!	!	!	!	!
4E\	.	1d\	.	.	.
4D/	.	.	.	.	.
!LO:TX:t=P:problem=kreska pseudotaktowa	!	!	!	!LO:TX:t=P:problem=kreska pseudotaktowa	!
1E-X\	.	.	.	1g\	San-
.	.	2c\	.	.	.
=3-	=3-	=3-	=3-	=3-	=3-
!LO:TX:t=P:problem=kreska pseudotaktowa	!	!	!	!	!
1D\	-ctus	2d\	.	2f/	.
.	.	2B-\	.	4e/	.
!	!	!	!	!LO:TX:t=P:problem=kreska pseudotaktowa	!
.	.	.	.	4d/	.
!LO:TX:t=P:problem=kreska pseudotaktowa	!	!	!	!LO:TX:t=P:problem=kreska pseudotaktowa	!
1r	.	1A\	-ctus	1e/	.
=4-	=4-	=4-	=4-	=4-	=4-
1G\	San-	1r	.	2.d/	.
!	!	!	!	!LO:TX:t=P:problem=kreska pseudotaktowa	!
.	.	.	.	4e/	.
2F\	.	1d\	ſan-	4f/	.
.	.	.	.	4g/	.
*	*	*	*	*2\right	*
4Eny\	.	.	.	2.a\	.
4D\	.	.	.	.	.
=5-	=5-	=5-	=5-	=5-	=5-
*lig	*	*	*	*	*
1E-X\	.	2B-\	.	.	.
.	.	.	.	4g/	.
!	!	!LO:LB:g=original	!	!	!
.	.	4A/	.	1g\	.
.	.	4G/	.	.	.
1D\	.	1A\	.	.	.
!	!	!	!	!LO:TX:t=P:problem=kreska pseudotaktowa	!
.	.	.	.	2f#X/	.
*Xlig	*	*	*	*	*
=6-	=6-	=6-	=6-	=6-	=6-
!LO:TX:t=P:problem=kreska pseudotaktowa	!	!	!	!	!
1GG/	-ctus	1G/	-ctus	2g/	-ctus
!	!	!	!	!LO:PB:g=original	!
.	.	.	.	4d/	San-
!	!	!	!	!LO:TX:t=P:problem=kreska pseudotaktowa	!
.	.	.	.	4e/	.
!LO:TX:t=P:problem=kreska pseudotaktowa	!	!	!	!LO:TX:t=P:problem=4\left or middle&colon; global	!
1rBB	.	2rD	.	4fny/	.
.	.	.	.	4g/	.
*	*	*lig	*	*	*
.	.	1D/	San-	4a\	.
.	.	.	.	8g\L	.
!	!	!	!	!LO:TX:t=P:problem=kreska pseudotaktowa	!
.	.	.	.	8f\J	.
=7-	=7-	=7-	=7-	=7-	=7-
2.GG/	San-	.	.	4g\	.
.	.	.	.	4a\	.
.	.	1G/	.	1b-\	.
4AA/	.	.	.	.	.
4BB-/	.	.	.	.	.
4C/	.	.	.	.	.
*	*	*Xlig	*	*	*
!LO:LB:g=original	!	!	!	!	!
1D\	.	4F/	.	4a\	.
!	!	!	!	!LO:TX:t=P:problem=kreska pseudotaktowa	!
.	.	4E/	.	4g/	.
=8-	=8-	=8-	=8-	=8-	=8-
*	*	*	*	*2\right	*
.	.	2F/	.	2a\	.
!LO:TX:t=P:problem=kreska pseudotaktowa	!	!	!	!	!
2BB-/	.	2.G/	.	1g\	.
2C/	.	.	.	.	.
.	.	4A/	.	.	.
!	!	!	!	!LO:TX:t=P:problem=kreska pseudotaktowa	!
2D/	.	2.B-\	.	2f#X/	.
=9-	=9-	=9-	=9-	=9-	=9-
*	*	*	*	*lig	*
2GG/	.	.	.	1g\	.
.	.	4A/	.	.	.
2BB-/	.	1G/	.	.	.
!LO:TX:t=P:problem=kreska pseudotaktowa	!	!	!	!	!
1AA/	.	.	.	1a\	.
.	.	2F#X/	.	.	.
*	*	*	*	*Xlig	*
=10-	=10-	=10-	=10-	=10-	=10-
2GG/	-ctus	1G/	-ctus	1d/	-ctus
2.G\	Do-	.	.	.	.
.	.	2.d\	Do-	0r	.
4G\	-mi-	.	.	.	.
!LO:TX:t=P:problem=kreska pseudotaktowa	!	!	!	!	!
2G\	-nus	.	.	.	.
.	.	4d\	-mi-	.	.
=11-	=11-	=11-	=11-	=11-	=11-
2F\	De-	2d\	-nus	.	.
2E-X\	-(us)	2c\	De-	.	.
4D/	Sab-	2B-\	-us	2r	.
4C/	.	.	.	.	.
!	!	!LO:LB:g=original	!	!	!
4D/	.	1A\	ſa-	2.a\	Do-
!LO:TX:t=P:problem=kreska pseudotaktowa	!	!	!	!	!
4E-\	.	.	.	.	.
=12-	=12-	=12-	=12-	=12-	=12-
2.F\	.	.	.	.	.
.	.	.	.	4a\	-mi-
!	!	!	!	!LO:TX:t=P:problem=kreska pseudotaktowa	!
.	.	2.c\	.	2a\	-nus
4Eny\	.	.	.	.	.
2C/	.	.	.	2g/	De-
.	.	4B-\	.	.	.
!	!	!	!	!LO:TX:t=P:problem=kreska pseudotaktowa	!
2D/	-ba-	4A/	.	2fny/	-us
.	.	4G/	.	.	.
=13-	=13-	=13-	=13-	=13-	=13-
*	*	*lig	*	*	*
!	!	!	!	!LO:LB:g=original	!
1AA/	-oth.	1A\	-ba-	2e/	Sab-
!	!	!	!	!LO:TX:t=P:problem=kreska pseudotaktowa	!
.	.	.	.	2e/	-ba-
!LO:LB:g=original	!	!	!	!LO:TX:t=P:problem=kreska pseudotaktowa	!
2rBB	.	1B-\	.	1d/	-oth.
2.D/	Do-	.	.	.	.
*	*	*Xlig	*	*	*
=14-	=14-	=14-	=14-	=14-	=14-
.	.	1A\	-oth.	2.a\	Do-
4D/	-mi-	.	.	.	.
!LO:TX:t=P:problem=kreska pseudotaktowa	!	!	!	!	!
2D/	-nus	.	.	.	.
!	!	!	!	!LO:TX:t=P:problem=kreska pseudotaktowa	!
.	.	.	.	4a\	-mi-
2C/	De-	2r	.	2a\	-nus
!LO:TX:t=P:problem=kreska pseudotaktowa	!	!	!	!LO:TX:t=P:problem=kreska pseudotaktowa	!
2BB-/	-us	2.d\	Do-	2g/	De-
=15-	=15-	=15-	=15-	=15-	=15-
4BB-/	Sab-	.	.	2f/	-(us)
4C/	.	4d\	-mi-	.	.
!	!	!	!	!LO:TX:t=P:problem=kreska pseudotaktowa	!
4D/	.	2d\	-nus	2b-\	Sab-
!LO:TX:t=P:problem=kreska pseudotaktowa	!	!	!	!	!
4E\	.	.	.	.	.
2F\	.	2c\	De-	2a\	.
2G\	-ba-	2B-\	-us	2.g/	.
=16-	=16-	=16-	=16-	=16-	=16-
1D\	-oth.	2A/	ſa-	.	.
!	!	!	!	!LO:TX:t=P:problem=♯ below	!
.	.	.	.	8f#X/L	.
.	.	.	.	8e/J	.
!	!	!	!	!LO:TX:t=P:problem=kreska pseudotaktowa	!
!	!	!	!	!LO:TX:t=P:problem=♯ below	!
.	.	2A/	-ba-	2f#X/	-ba-
2rBB	.	1G/	-oth.	2g/	-oth.
!LO:TX:t=P:problem=kreska pseudotaktowa	!	!	!	!LO:TX:t=P:problem=kreska pseudotaktowa	!
2GG/	Ple-	.	.	2d/	Ple-
=17-	=17-	=17-	=17-	=17-	=17-
2D/	-ni	2rF	.	2fny/	-ni
!	!	!	!	!LO:TX:t=P:problem=kreska pseudotaktowa	!
2D/	Sunt	2A/	Ple-	2f/	Sunt
1G\	Cae-	2B-\	-ni	4g/	Cae-
.	.	.	.	4f/	.
.	.	2B-\	Sunt	1b-\	.
=18-	=18-	=18-	=18-	=18-	=18-
!LO:TX:t=P:problem=kreska pseudotaktowa	!	!	!	!	!
1F\	-li	1c\	Cae-	.	.
!	!	!	!	!LO:TX:t=P:problem=kreska pseudotaktowa	!
.	.	.	.	2a\	.
!	!	!LO:LB:g=original	!	!LO:LB:g=original	!
2rBB	.	1B-\	-li	2b-\	-li
!	!	!	!	!LO:TX:t=P:problem=kreska pseudotaktowa	!
2BB-/	ple-	.	.	2f/	ple-
=19-	=19-	=19-	=19-	=19-	=19-
2BB-/	-ni	2r	.	2f/	-ni
!LO:TX:t=P:problem=kreska pseudotaktowa	!	!	!	!	!
*	*	*	*ij	*	*
2BB-/	sunt	2B-\	Ple-	2f/	Sunt
!	!	!	!	!LO:TX:t=P:problem=kreska pseudotaktowa	!
!LO:PB:g=original	!	!	!	!	!
1E-X\	Cae-	2B-\	-ni	1g\	Cae-
.	.	2B-\	Sunt	.	.
=20-	=20-	=20-	=20-	=20-	=20-
2D/	-li	1d\	Cae-	2f/	-li
2BB-/	et	.	.	1b-\	et
1F\	ter-	2c\	-li	.	.
*	*	*	*Xij	*	*
!	!	!	!	!LO:TX:t=P:problem=kreska pseudotaktowa	!
.	.	2c\	et	2a\	ter-
=21-	=21-	=21-	=21-	=21-	=21-
!LO:TX:t=P:problem=kreska pseudotaktowa	!	!	!	!LO:TX:t=P:problem=kreska pseudotaktowa	!
0BB-/	-ra	2.f\	ter-	1b-\	-ra
.	.	4e\	.	.	.
.	.	4d\	.	2r	.
.	.	4c\	.	.	.
.	.	1B-\	.	1f/	glo-
=22-	=22-	=22-	=22-	=22-	=22-
!LO:TX:t=P:problem=kreska pseudotaktowa	!	!	!	!	!
1r	.	.	.	.	.
!	!	!	!	!LO:TX:t=P:problem=kreska pseudotaktowa	!
.	.	2A/	.	2f/	-ri-
2r	.	2B-\	.	2g/	-a
!	!	!	!	!LO:TX:t=P:problem=kreska pseudotaktowa	!
1F\	glo-	2c\	.	2a\	glo-
=23-	=23-	=23-	=23-	=23-	=23-
.	.	1A\	-ra	4a\	-ri-
.	.	.	.	4g/	-a
!LO:TX:t=P:problem=kreska pseudotaktowa	!	!	!	!	!
2F\	-ri-	.	.	4f/	Tu-
!	!	!	!	!LO:TX:t=P:problem=kreska pseudotaktowa	!
.	.	.	.	4e/	.
2G\	-a	1r	.	4d/	.
.	.	.	.	4e/	.
!	!	!	!	!LO:TX:t=P:problem=kreska pseudotaktowa	!
2.A\	Tu-	.	.	2f/	.
=24-	=24-	=24-	=24-	=24-	=24-
!	!	!	!	!LO:LB:g=original	!
.	.	2r	.	2e/	.
4G\	.	.	.	.	.
!	!	!	!	!LO:TX:t=P:problem=kreska pseudotaktowa	!
4F\	.	1Fny/	glo-	2.f/	.
!LO:TX:t=P:problem=kreska pseudotaktowa	!	!	!	!	!
4Eny\	.	.	.	.	.
4D\	.	.	.	.	.
4E\	.	.	.	4e/	.
4F\	.	2F/	-ri-	1d/	.
8E\L	.	.	.	.	.
8D\J	.	.	.	.	.
=25-	=25-	=25-	=25-	=25-	=25-
1E-X\	.	1G/	-a	.	.
!	!	!	!	!LO:TX:t=P:problem=kreska pseudotaktowa	!
.	.	.	.	2c#X/	.
!LO:TX:t=P:problem=kreska pseudotaktowa	!	!LO:LB:g=original	!	!	!
1D\	-a	2.A\	tu-	2d/	-a
.	.	.	.	2.a\	glo-
.	.	4B-\	.	.	.
=26-	=26-	=26-	=26-	=26-	=26-
!LO:TX:t=P:problem=kreska pseudotaktowa	!	!	!	!	!
!LO:TX:a:t=2	!	!	!	!	!
0r	.	2c\	.	.	.
.	.	.	.	4g/	-ri-
!	!	!	!	!LO:TX:t=P:problem=kreska pseudotaktowa	!
.	.	1d\	.	2f/	-a
.	.	.	.	1e/	Tu-
.	.	2c\	.	.	.
=27-	=27-	=27-	=27-	=27-	=27-
!LO:LB:g=original	!	!	!	!	!
2rBB	.	2.d\	-a	2d/	-a.
1BB-/	glo-	.	.	1dd\	glo-
.	.	4c\	.	.	.
.	.	2.B-\	.	.	.
!LO:TX:t=P:problem=kreska pseudotaktowa	!	!	!	!LO:TX:t=P:problem=kreska pseudotaktowa	!
2BB-/	-ri-	.	.	2dd\	-ri-
.	.	4A/	.	.	.
=28-	=28-	=28-	=28-	=28-	=28-
2C/	-a	2G/	.	2cc\	-a
2D/	Tu-	2F/	.	1b-\	Tu-
!LO:TX:t=P:problem=kreska pseudotaktowa	!	!	!	!	!
1E-X\	.	2.G/	glo-	.	.
.	.	.	.	4a\	.
!	!	!	!	!LO:TX:t=P:problem=kreska pseudotaktowa	!
.	.	4A/	-ri-	4g/	.
=29-	=29-	=29-	=29-	=29-	=29-
!LO:TX:t=P:problem=kreska pseudotaktowa	!	!	!	!LO:TX:t=P:global:problem=rozdzielacz słów	!
1D\	-â	4B-\	-a	2f,</	-a
.	.	2A/	Tu-	.	.
.	.	.	.	1f/	glo-
.	.	8B-\L	.	.	.
.	.	8c\J	.	.	.
0rD	.	1d\	-a	.	.
!	!	!	!	!LO:TX:t=P:problem=kreska pseudotaktowa	!
.	.	.	.	2f/	-ri-
=30-	=30-	=30-	=30-	=30-	=30-
!	!	!	!	!LO:LB:g=original	!
.	.	2rF	.	2g/	-â
!	!	!	!	!LO:TX:t=P:problem=kreska pseudotaktowa	!
.	.	1F/	glo-	2a\	Tu-
1BB-/	glo-	.	.	1.b-\	.
.	.	2F/	-ri-	.	.
=31-	=31-	=31-	=31-	=31-	=31-
!	!	!LO:LB:g=original	!	!	!
2BB-/	-ri-	2G/	-a	.	.
!LO:TX:t=P:problem=kreska pseudotaktowa	!	!	!	!	!
2C/	-a	2.A/	glo-	4a\	.
!	!	!	!	!LO:TX:t=P:problem=kreska pseudotaktowa	!
.	.	.	.	4g/	.
2.D\	Tu-	.	.	4f/	.
.	.	4G/	.	4e/	.
.	.	4F/	.	4f/	.
!	!	!	!	!LO:TX:t=P:problem=kreska pseudotaktowa	!
4Eny\	.	4E/	.	4g/	.
=32-	=32-	=32-	=32-	=32-	=32-
2F\	.	2D/	.	2a\	.
!LO:TX:t=P:problem=kreska pseudotaktowa	!	!	!	!LO:TX:t=P:problem=kreska pseudotaktowa	!
2G\	.	2.d\	.	2g/	.
2D/	.	.	.	2a\	-a
.	.	4c\	-ri-	.	.
!	!	!	!	!LO:TX:t=P:problem=kreska pseudotaktowa	!
*	*	*	*	*	*ij
1G\	.	4B-\	-a	2.b-\	glo-
.	.	4A\	.	.	.
=33-	=33-	=33-	=33-	=33-	=33-
.	.	2B-\	.	.	.
.	.	.	.	4a\	-ri-
!LO:TX:t=P:problem=kreska pseudotaktowa	!	!	!	!	!
2C/	.	2c\	.	1g\	-â
1D\	.	1A\	Tu-	.	.
!	!	!	!	!LO:TX:t=P:problem=kreska pseudotaktowa	!
.	.	.	.	2f#X/	Tu-
=34-	=34-	=34-	=34-	=34-	=34-
!	!	!	!	!LO:N:vis=1	!
0GG/;	-a.	0G/;	-â.	0g\;	-a
=35||	=35||	=35||	=35||	=35||	=35||
*M3/1	*	*M3/1	*	*M3/1	*Xij
*>B	*	*>B	*	*>B	*
!LO:TX:t=P:problem=kreska pseudotaktowa	!	!LO:PB:g=original	!	!LO:LB:g=original	!
!LO:LB:g=original	!	!LO:N:vis=0	!	!	!
!LO:N:vis=0	!	!	!	!	!
0.r	.	0.r	.	1dd\	O-
.	.	.	.	1cc\	-ſan-
!	!	!	!	!LO:TX:t=P:problem=kreska pseudotaktowa	!
.	.	.	.	1b-\	-na
=36-	=36-	=36-	=36-	=36-	=36-
1D\	O-	1d\	O-	0a\	in
1F\	-ſan-	1c\	-ſan-	.	.
!LO:TX:t=P:problem=kreska pseudotaktowa	!	!	!	!LO:TX:t=P:problem=kreska pseudotaktowa	!
1G\	-na	1B-\	-na	1g\	ex-
=37-	=37-	=37-	=37-	=37-	=37-
0D\	in	2A/	in	2f/	-cel-
.	.	2G/	.	2e/	.
.	.	2A/	.	2f/	.
.	.	2B-\	.	2g/	.
!	!	!	!	!LO:TX:t=P:problem=kreska pseudotaktowa	!
1C/	ex-	1c\	ex-	1a\	.
=38-	=38-	=38-	=38-	=38-	=38-
2BB-/	-cel-	0d\	-cel-	0b-\	.
2C/	.	.	.	.	.
2D/	.	.	.	.	.
2E\	.	.	.	.	.
!LO:TX:t=P:problem=kreska pseudotaktowa	!	!	!	!	!
1F\	.	1c\	.	1a\	-sis
=39-	=39-	=39-	=39-	=39-	=39-
1BB-/	.	1B-\	.	1r	.
*lig	*	*	*	*	*
1F\	.	1A\	-sis	1a\	o-
!LO:TX:t=P:problem=kreska pseudotaktowa	!	!	!	!LO:TX:t=P:problem=kreska pseudotaktowa	!
1G\	.	1r	.	1g\	-san-
*Xlig	*	*	*	*	*
=40-	=40-	=40-	=40-	=40-	=40-
1D\	ſis	1d\	O-	1f/	-na
!LO:N:vis=2	!	!	!	!	!
1r	.	1c\	-san-	1e/	in
!LO:TX:t=P:problem=kreska pseudotaktowa	!	!	!	!	!
!LO:N:vis=2	!	!	!	!	!
1r	.	1B-\	-na	1g\	ex-
=41-	=41-	=41-	=41-	=41-	=41-
!LO:TX:a:t=2	!	!LO:LB:g=original	!	!	!
*	*	*col	*	*	*
!LO:TX:t=P:problem=kreska pseudotaktowa	!	!	!	!LO:LB:g=original	!
!LO:N:vis=00	!	!	!	!	!
00.r	.	1A\	in	1f/	-cel-
.	.	1G/	ex-	1.g\	.
.	.	0B-\	-cel-	.	.
!	!	!	!	!LO:TX:t=P:problem=kreska pseudotaktowa	!
.	.	.	.	2f/	.
=42-	=42-	=42-	=42-	=42-	=42-
.	.	.	.	2e/	.
.	.	.	.	2d/	.
!	!	!	!	!LO:TX:t=P:problem=kreska pseudotaktowa	!
.	.	0A\	-sis	0e/	.
*	*	*Xcol	*	*	*
=43-	=43-	=43-	=43-	=43-	=43-
!LO:LB:g=original	!	!	!	!	!
1G\	O-	1r	.	1.d/	.
1F\	-ſan-	1r	.	.	.
.	.	.	.	4c/	.
.	.	.	.	4B-/	.
!LO:TX:t=P:problem=kreska pseudotaktowa	!	!	!	!LO:TX:t=P:problem=kreska pseudotaktowa	!
1E-X\	-na	1G/	O-	1c/	.
=44-	=44-	=44-	=44-	=44-	=44-
1D\	in	1B-\	-san-	1d/	.
1C/	ex-	(1c\	-na	1e/	.
!LO:TX:t=P:problem=kreska pseudotaktowa	!	!	!	!LO:TX:t=P:problem=kreska pseudotaktowa	!
1D\	-cel-	1A\)	.	1d/	-sis
=45-	=45-	=45-	=45-	=45-	=45-
2GG/	.	0G/	in	1r	.
2AA/	.	.	.	.	.
2BB-/	.	.	.	1r	.
2C/	.	.	.	.	.
!LO:TX:t=P:problem=kreska pseudotaktowa	!	!	!	!LO:TX:t=P:problem=kreska pseudotaktowa	!
1D\	.	1F/	ex-	1a\	o-
=46-	=46-	=46-	=46-	=46-	=46-
*lig	*	*	*	*	*
1C/	.	2G/	-cel-	1cc\	-ſan-
.	.	2A/	.	.	.
1BB-/	.	2B-\	.	1dd\	-na
.	.	2G/	.	.	.
*Xlig	*	*	*	*	*
!LO:TX:t=P:problem=kreska pseudotaktowa	!	!	!	!LO:TX:t=P:problem=kreska pseudotaktowa	!
1F\	.	1A\	.	1cc\	in
=47-	=47-	=47-	=47-	=47-	=47-
*	*	*	*	*col	*
1BB-/	.	1.G/	.	1b-\	ex-
*lig	*	*	*	*Xcol	*
!	!	!	!	!LO:TX:t=P:problem=kreska pseudotaktowa	!
1C/	.	.	.	0a\	-cel-
.	.	4F/	.	.	.
.	.	4E/	.	.	.
!LO:TX:t=P:problem=kreska pseudotaktowa	!	!	!	!	!
1D\	.	1F/	.	.	.
*Xlig	*	*	*	*	*
=48-	=48-	=48-	=48-	=48-	=48-
!	!	!LO:LB:g=original	!	!LO:LB:g=original	!
1GG/	-ſis	2G\	.	1.g\	.
.	.	2A\	.	.	.
1.G\	in	2B-\	.	.	.
.	.	2c\	.	2f/	.
.	.	1d\	.	2g/	.
!LO:TX:t=P:problem=kreska pseudotaktowa	!	!	!	!LO:TX:t=P:problem=kreska pseudotaktowa	!
2F\	ex-	.	.	2a\	.
=49-	=49-	=49-	=49-	=49-	=49-
!LO:LB:g=original	!	!	!	!	!
2E-X\	-cel-	0.G/	-sis	1b-\	.
2D/	.	.	.	.	.
!LO:TX:t=P:problem=kreska pseudotaktowa	!	!	!	!LO:TX:t=P:problem=kreska pseudotaktowa	!
0E-\	.	.	.	0g\	.
=50-	=50-	=50-	=50-	=50-	=50-
1.D\	.	1A\	O-	1.f/	.
.	.	1d\	-ſan-	.	.
2Eny\	.	.	.	2g/	.
!LO:TX:t=P:problem=kreska pseudotaktowa	!	!	!	!LO:TX:t=P:problem=kreska pseudotaktowa	!
1F\	.	1c\	-na	1a\	.
=51-	=51-	=51-	=51-	=51-	=51-
1G\	.	1B-\	in	1b-\	.
1.F\	.	1.c\	ex-	1.a\	.
!LO:TX:t=P:problem=kreska pseudotaktowa	!	!	!	!	!
2G\	.	2B-\	.	2g/	.
=52-	=52-	=52-	=52-	=52-	=52-
1E-X\	.	1G/	.	0g\	.
0D\	.	0A\	-cel-	.	.
.	.	.	.	1f#X/	.
=53-	=53-	=53-	=53-	=53-	=53-
!	!	!	!	!LO:TX:t=P:problem=fermata above/below	!
0.GG/;	-ſis.	0.G/;;	-ſis.	0.g\;;	-sis.
=54||	=54||	=54||	=54||	=54||	=54||
*M2/1	*	*M2/1	*	*M2/1	*
*met(c|)	*	*met(c|)	*	*met(c|)	*
*>C	*	*>C	*	*>C	*
!LO:TX:a:B:t=Benedictus tacet.	!	!LO:LB:g=original	!	!LO:PB:g=original	!
0ryy	.	0r	.	1g\	Be-
.	.	.	.	2a\	-ne-
.	.	.	.	2.b-\	-di-
=55-	=55-	=55-	=55-	=55-	=55-
0ryy	.	2r	.	.	.
.	.	.	.	4a\	-ctus
.	.	1G/	Be-	1dd\	qui
!	!	!LO:TX:t=P:problem=kreska pseudotaktowa	!	!LO:TX:t=P:problem=kreska pseudotaktowa	!
.	.	2A/	-ne-	2cc\	ve-
=56-	=56-	=56-	=56-	=56-	=56-
0ryy	.	2.B-\	-di-	1dd\	-nit
.	.	4A/	.	.	.
.	.	4G/	.	2re	.
.	.	4F/	.	.	.
.	.	1G/	.	1d/	be-
=57-	=57-	=57-	=57-	=57-	=57-
0ryy	.	.	.	.	.
!	!	!	!	!LO:TX:t=P:problem=kreska pseudotaktowa	!
.	.	4F/	.	2e/	-ne-
!	!	!LO:TX:t=P:problem=kreska pseudotaktowa	!	!	!
.	.	4E/	.	.	.
.	.	2D/	-ctus	1f/	-di-
*	*	*	*ij	*	*
.	.	2d\	Be-	.	.
=58-	=58-	=58-	=58-	=58-	=58-
0ryy	.	2G/	-ne-	2g/	-ctus
.	.	2B-\	-di-	4f/	qui
.	.	.	.	8e/L	.
!	!	!	!	!LO:TX:t=P:problem=kreska pseudotaktowa	!
.	.	.	.	8d/J	.
!	!	!LO:TX:t=P:problem=kreska pseudotaktowa	!	!	!
.	.	1A\	-ctus	1e/	ve-
*	*	*	*Xij	*	*
=59-	=59-	=59-	=59-	=59-	=59-
!	!	!LO:LB:g=original	!	!	!
0ryy	.	2rF	.	2d/	-nit
!	!	!LO:TX:t=P:problem=kreska pseudotaktowa	!	!LO:TX:t=P:problem=kreska pseudotaktowa	!
.	.	2G/	qui	2b-\	qui
.	.	2F/	ve-	2a\	ve-
!	!	!	!	!LO:LB:g=original	!
.	.	2.G/	.	2.b-\	.
=60-	=60-	=60-	=60-	=60-	=60-
0ryy	.	.	.	.	.
.	.	4F/	.	4a\	.
.	.	4E/	.	4g/	.
!	!	!	!	!LO:TX:t=P:problem=kreska pseudotaktowa	!
.	.	4D/	.	4f/	.
!	!	!LO:TX:t=P:problem=kreska pseudotaktowa	!	!	!
.	.	1E/	.	1g\	.
=61-	=61-	=61-	=61-	=61-	=61-
0ryy	.	2D/	-nit	2f/	-nit
.	.	1G/	qui	1b-\	qui
!	!	!LO:TX:t=P:problem=kreska pseudotaktowa	!	!LO:TX:t=P:problem=kreska pseudotaktowa	!
.	.	2F/	ve-	2a\	ve-
=62-	=62-	=62-	=62-	=62-	=62-
0ryy	.	2.G/	.	2.b-\	.
.	.	8F/L	.	8a\L	.
!	!	!	!	!LO:TX:t=P:problem=kreska pseudotaktowa	!
.	.	8E/J	.	8g\J	.
!	!	!LO:TX:t=P:problem=kreska pseudotaktowa	!	!	!
.	.	1D/	-nit	2f,</	-nit
!	!	!	!	!LO:TX:t=P:problem=kreska pseudotaktowa	!
.	.	.	.	2a\	in
=63-	=63-	=63-	=63-	=63-	=63-
!	!	!LO:TX:t=P:problem=kreska pseudotaktowa	!	!	!
0ryy	.	0rA	.	2a\	No-
!	!	!	!	!LO:TX:t=P:problem=kreska pseudotaktowa	!
.	.	.	.	2a\	-mi-
.	.	.	.	4g\	-ne
.	.	.	.	4a\	.
.	.	.	.	4b-\	.
.	.	.	.	8a\L	.
!	!	!	!	!LO:TX:t=P:problem=kreska pseudotaktowa	!
.	.	.	.	8g\J	.
=64-	=64-	=64-	=64-	=64-	=64-
0ryy	.	2r	.	2a\	.
.	.	2d\	in	2.b-\	Do-
.	.	2d\	No-	.	.
.	.	.	.	4a\	.
!	!	!LO:TX:t=P:problem=kreska pseudotaktowa	!	!LO:LB:g=original	!
.	.	2d\	-mi-	1g\	.
=65-	=65-	=65-	=65-	=65-	=65-
0ryy	.	4c\	-ne	.	.
.	.	4B-\	.	.	.
!	!	!	!	!LO:TX:t=P:problem=kreska pseudotaktowa	!
.	.	4c\	.	2f/	-mi-
.	.	4d\	.	.	.
!	!	!LO:LB:g=original	!	!	!
.	.	2e-X\	.	2g/	-ni
.	.	2.d\	Do-	2.b-\	Do-
=66-	=66-	=66-	=66-	=66-	=66-
0ryy	.	.	.	.	.
.	.	4c\	.	4a\	.
.	.	4B-\	.	1a\	.
.	.	4A\	.	.	.
.	.	2B-\	.	.	.
!	!	!	!	!LO:TX:t=P:problem=kreska pseudotaktowa	!
.	.	2B-\	-mi-	2g/	.
=67-	=67-	=67-	=67-	=67-	=67-
!	!	!LO:TX:t=P:problem=kreska pseudotaktowa	!	!	!
0ryy	.	1A\	-ni	2.a\	.
.	.	.	.	8g/L	.
.	.	.	.	8f/J	.
.	.	2r	.	2g/	.
.	.	2A/	in	2f/	-mi-
=68-	=68-	=68-	=68-	=68-	=68-
!	!	!	!	!LO:TX:t=P:problem=kreska pseudotaktowa	!
0ryy	.	2A/	No-	1e/	-ni
!	!	!LO:TX:t=P:problem=kreska pseudotaktowa	!	!	!
.	.	2A/	-mi-	.	.
.	.	4G/	-ne	2r	.
.	.	4F/	.	.	.
.	.	4G/	.	2dd\	in
.	.	4A/	.	.	.
=69-	=69-	=69-	=69-	=69-	=69-
!	!	!LO:TX:t=P:problem=kreska pseudotaktowa	!	!	!
0ryy	.	1B-\	.	2dd\	No-
!	!	!	!	!LO:TX:t=P:problem=kreska pseudotaktowa	!
.	.	.	.	2dd\	-mi-
.	.	2.A/	Do-	4cc\	-ne
.	.	.	.	4b-\	.
.	.	.	.	4cc\	.
.	.	4A/	-mi-	4dd\	.
=70-	=70-	=70-	=70-	=70-	=70-
0ryy	.	2G/	-ni	2ee-X\	Do-
!	!	!LO:TX:t=P:problem=kreska pseudotaktowa	!	!	!
.	.	2G/	in	1dd\	.
.	.	2G/	No-	.	.
!	!	!	!	!LO:LB:g=original	!
.	.	2G/	-mi-	4cc\	.
!	!	!	!	!LO:TX:t=P:problem=kreska pseudotaktowa	!
.	.	.	.	4b-\	.
=71-	=71-	=71-	=71-	=71-	=71-
!	!	!LO:LB:g=original	!	!	!
0ryy	.	4F/	-ne	4a\	.
.	.	4E/	.	4g\	.
.	.	4F/	.	4a\	.
!	!	!LO:TX:t=P:problem=kreska pseudotaktowa	!	!LO:TX:t=P:problem=kreska pseudotaktowa	!
.	.	4G/	.	4b-\	.
.	.	4A\	.	2.cc\	.
.	.	4G\	.	.	.
.	.	4A\	.	.	.
.	.	4B-\	.	8b-\L	.
!	!	!	!	!LO:TX:t=P:problem=kreska pseudotaktowa	!
.	.	.	.	8a\J	.
=72-	=72-	=72-	=72-	=72-	=72-
0ryy	.	2.c\	.	4g/	.
.	.	.	.	4f/	.
.	.	.	.	4g/	.
!	!	!	!	!LO:TX:t=P:problem=kreska pseudotaktowa	!
.	.	8B-\L	.	4a\	.
!	!	!LO:TX:t=P:problem=kreska pseudotaktowa	!	!	!
.	.	8A\J	.	.	.
.	.	2G/	.	2.b-\	.
.	.	1B-\	Do-	.	.
.	.	.	.	8a\L	.
!	!	!	!	!LO:TX:t=P:problem=kreska pseudotaktowa	!
.	.	.	.	8g\J	.
=73-	=73-	=73-	=73-	=73-	=73-
0ryy	.	.	.	4f/	.
.	.	.	.	4e/	.
.	.	4A/	.	4f/	.
!	!	!LO:TX:t=P:problem=kreska pseudotaktowa	!	!LO:TX:t=P:problem=kreska pseudotaktowa	!
.	.	4G/	.	4g/	.
.	.	2F/	.	2a\	.
.	.	1G/	.	2.b-\	.
=74-	=74-	=74-	=74-	=74-	=74-
0ryy	.	.	.	.	.
.	.	.	.	4a\	.
!	!	!LO:TX:t=P:problem=kreska pseudotaktowa	!	!	!
.	.	2C/	.	1g\	.
.	.	1D/	-mi-	.	.
.	.	.	.	2f#X/	-mi-
=75-	=75-	=75-	=75-	=75-	=75-
!	!	!LO:TX:b:t=Osanna\nùt supra&colon;	!	!LO:TX:b:t=Osanna ut\nsupra.	!
!LO:TX:b:t=Osanna ùt ſupra.	!	!	!	!LO:TX:t=P:problem=fermata above/below	!
0ryy	.	0G/;;	-ni	0g\;;	-ni.
==	==	==	==	==	==
*-	*-	*-	*-	*-	*-
!!!system-decoration: [(s1,s2,s3)]
!!!RDF**kern: > = above
!!!RDF**kern: < = below
!!!EED: Andrzej Borzym
!!!EST: 2021-03-24
!!!AIN: 1 empty 1 tenor 1 vox
!!!ENC: Andrzej Kubiczek
!!!END: 2021-03-10
